X:22002
T:Oyster Girl
R:Jig
B:Tuneworks Tunebook 2 (https://www.tuneworks.co.uk/)
G:Tuneworks
Z:Jon Warbrick <jon.warbrick@googlemail.com>
M:6/8
L:1/8
K:G
|: B2 c | "G" ded B2 G | "D7" A2 F DEF | "G" GFG BAB | "Am" d2 c"D7" A3 |
"G" ded Bdg | "C" f2 e c2 e | "G" ded"D7" cBA | "G" G3 :|
|: d2 c | "G" Bcd Bcd | "C" e2 c e2 c | "D7" ABc ABc | "G" d2 B d2 B |
"G" ded Bdg | "C" f2 e c2 e | "G" ded"D7" cBA | "G" G3 :|
